X: 20552
T: LADY ELGIN'S STRATHSPEY
%R: strathspey
B: W. Hamilton "Universal Tune-Book" Vol. 2 Glasgow 1846 p.55 #2
S: http://s3-eu-west-1.amazonaws.com/itma.dl.printmaterial/book_pdfs/hamiltonvol2web.pdf
Z: 2016 John Chambers <jc:trillian.mit.edu>
N: Incorrect rhythm notation in bars 17,20 fixed to agree with the first strain.
M: 2/4
L: 1/16
K: G
% - - - - - - - - - - - - - - - - - - - - - - - - -
|:\
gd3BG3 | ce3d4 | gd3BG3 | EA3FD3 |\
gd3BG3 | ce3d4 | Bg3ea3 | fd3g4 :|\
ee3g2e2 | bg3e3B | GG3B3A | GB3GE3 |
ee3g3e | ^d2f2B2b2 | g3eB2^d2 | e4Hf4 |\
gd3BG3 | ce3d4 | gd3BG3 | EA3FD3 |\
gd3BG3 | ce3d4 | Bg3ea3 | fd3g4 |]
% - - - - - - - - - - - - - - - - - - - - - - - - -

%%sep 1 1 500
%%sep 1 1 500

